X:6750
T:Hanter Dro
C:R. Robert
M:3/4
L:1/16
K:C
A2cB A2e2 c2A2|efde c2dc B4|\
A2cB A2e2 c2A2|BdBc A2BG A2G2||
|:AAGA B3c A2G2|AABc d3e c2ee|dcBc AABG A3G:|
